icon/mi/optician.svg

<?xml version="1.0" encoding="UTF-8"?>
<svg viewBox="0 0 15 15" xmlns="http://www.w3.org/2000/svg" id="optician" height="1em" width="1em">
  <path d="M1.78483 3.81169C2.03375 3.31421 2.54231 3 3.09859 3C3.48821 3 3.86186 3.15477 4.13736 3.43027L4.85354 4.14645C5.0488 4.34171 5.0488 4.65829 4.85354 4.85355C4.65827 5.04882 4.34169 5.04882 4.14643 4.85355L3.43017 4.1373C3.34226 4.04939 3.22303 4 3.09871 4C2.92116 4 2.75884 4.10032 2.67944 4.25912L1.309 7H5.2476C6.0654 7 6.7487 7.5656 6.941 8.3245C7.1146 8.2834 7.3009 8.25 7.5 8.25C7.6991 8.25 7.8854 8.2835 8.059 8.3246C8.2513 7.5656 8.9344 7 9.752 7H13.691L12.3206 4.25912C12.2412 4.10032 12.0788 4 11.9013 4C11.777 4 11.6577 4.04939 11.5698 4.1373L10.8536 4.85355C10.6583 5.04882 10.3417 5.04882 10.1465 4.85355C9.9512 4.65829 9.9512 4.34171 10.1465 4.14645L10.8626 3.43027C11.1381 3.15477 11.5118 3 11.9014 3C12.4577 3 12.9663 3.31421 13.2152 3.81169L14.9414 7.26172L14.9404 7.26308C14.9784 7.33359 15 7.41428 15 7.5V8.5C15 8.7761 14.7761 9 14.5 9H14V9.5C14 11.0889 12.998 12 11.25 12H10.75C9.002 12 8 11.0889 8 9.5V9.3413C7.8499 9.2933 7.6693 9.25 7.5 9.25C7.3307 9.25 7.1503 9.2933 7 9.3413V9.5C7 11.0889 5.9976 12 4.25 12H3.75C2.0024 12 1 11.0889 1 9.5V9H0.4992C0.2235 9 0 8.7765 0 8.5007V7.5C0 7.41428 0.0215731 7.33359 0.0595866 7.26308L0.0585938 7.26172L1.78483 3.81169ZM9.752 8C9.3369 8 9 8.3374 9 8.7524V9.5C9 10.1982 9.1992 11 10.75 11H11.25C12.8008 11 13 10.1982 13 9.5V8.7529C13 8.3379 12.6621 8 12.2471 8H9.752ZM2.7529 8C2.3379 8 2 8.3374 2 8.7524V9.5C2 10.1982 2.1987 11 3.75 11H4.25C5.8013 11 6 10.1982 6 9.5V8.7524C6 8.3374 5.6626 8 5.2475 8H2.7529Z"/>
</svg>

<svg width="15" height="15" xmlns="http://www.w3.org/2000/svg"><path d="M1.785 3.812a1.469 1.469 0 0 1 2.352-.382l.717.716a.5.5 0 1 1-.708.708l-.716-.717a.469.469 0 0 0-.75.122L1.308 7h3.939c.817 0 1.5.566 1.693 1.325A2.41 2.41 0 0 1 7.5 8.25c.2 0 .385.034.559.075A1.751 1.751 0 0 1 9.752 7h3.939l-1.37-2.74a.469.469 0 0 0-.751-.123l-.716.717a.5.5 0 1 1-.707-.708l.716-.716a1.47 1.47 0 0 1 2.352.382l1.726 3.45v.001c.037.07.059.151.059.237v1a.5.5 0 0 1-.5.5H14v.5c0 1.589-1.002 2.5-2.75 2.5h-.5C9.002 12 8 11.089 8 9.5v-.159a1.709 1.709 0 0 0-.5-.091c-.17 0-.35.043-.5.091V9.5C7 11.089 5.998 12 4.25 12h-.5C2.002 12 1 11.089 1 9.5V9H.5a.5.5 0 0 1-.5-.5v-1c0-.086.022-.166.06-.237l-.001-.001 1.726-3.45ZM9.752 8A.753.753 0 0 0 9 8.752V9.5c0 .698.2 1.5 1.75 1.5h.5C12.8 11 13 10.198 13 9.5v-.747A.754.754 0 0 0 12.247 8H9.752Zm-7 0A.754.754 0 0 0 2 8.752V9.5c0 .698.199 1.5 1.75 1.5h.5C5.801 11 6 10.198 6 9.5v-.748A.753.753 0 0 0 5.247 8H2.753Z"/></svg>
